img/pinterest.svg

<svg width="13" height="16" viewBox="0 0 13 16" fill="none" xmlns="http://www.w3.org/2000/svg">
<g clip-path="url(#clip0_190_1618)">
<path d="M6.7402 0.203125C3.55552 0.203125 0.408081 2.34063 0.408081 5.8C0.408081 8 1.63726 9.25 2.38221 9.25C2.68951 9.25 2.86643 8.3875 2.86643 8.14375C2.86643 7.85313 2.13079 7.23438 2.13079 6.025C2.13079 3.5125 4.03043 1.73125 6.48878 1.73125C8.60259 1.73125 10.167 2.94062 10.167 5.1625C10.167 6.82187 9.50585 9.93437 7.3641 9.93437C6.59121 9.93437 5.93006 9.37187 5.93006 8.56563C5.93006 7.38438 6.74951 6.24062 6.74951 5.02187C6.74951 2.95312 3.83487 3.32812 3.83487 5.82812C3.83487 6.35313 3.90006 6.93437 4.13286 7.4125C3.70451 9.26875 2.82919 12.0344 2.82919 13.9469C2.82919 14.5375 2.91299 15.1188 2.96886 15.7094C3.0744 15.8281 3.02163 15.8156 3.18304 15.7563C4.74744 13.6 4.69157 13.1781 5.39928 10.3562C5.78107 11.0875 6.76814 11.4812 7.55034 11.4812C10.8468 11.4812 12.3274 8.24688 12.3274 5.33125C12.3274 2.22813 9.66415 0.203125 6.7402 0.203125Z" fill="black"/>
</g>
<defs>
<clipPath id="clip0_190_1618">
<rect width="11.9193" height="16" fill="white" transform="translate(0.408081)"/>
</clipPath>
</defs>
</svg>

<svg xmlns="http://www.w3.org/2000/svg" width="13" height="16" fill="none"><g clip-path="url(#a)"><path fill="#000" d="M6.74.203C3.556.203.408 2.341.408 5.8c0 2.2 1.23 3.45 1.974 3.45.308 0 .484-.863.484-1.106 0-.29-.735-.91-.735-2.119 0-2.513 1.9-4.294 4.358-4.294 2.114 0 3.678 1.21 3.678 3.431 0 1.66-.661 4.772-2.803 4.772-.773 0-1.434-.562-1.434-1.368 0-1.182.82-2.325.82-3.544 0-2.069-2.915-1.694-2.915.806 0 .525.065 1.106.298 1.584-.428 1.857-1.304 4.622-1.304 6.535 0 .59.084 1.172.14 1.762.105.12.053.107.214.047 1.564-2.156 1.509-2.578 2.216-5.4.382.732 1.37 1.125 2.151 1.125 3.297 0 4.777-3.234 4.777-6.15 0-3.103-2.663-5.128-5.587-5.128Z"/></g><defs><clipPath id="a"><path fill="#fff" d="M.408 0h11.92v16H.407z"/></clipPath></defs></svg>
